Adwaita++-Dark/actions/22/reverse.svg

<svg height="22" viewBox="0 0 22 22" width="22" xmlns="http://www.w3.org/2000/svg">
  <path d="m4 1-3 3h2v11h2v-11h2zm7 0v11h-2l3 3 3-3h-2v-11z" fill="#e6ddff" transform="translate(3 3)"/>
</svg>

<svg xmlns="http://www.w3.org/2000/svg" width="22" height="22" viewBox="0 0 22 22">
 <defs>
  <style id="current-color-scheme" type="text/css">
   .ColorScheme-Text { color:#E6DDFF; } .ColorScheme-Highlight { color:#4285f4; }
  </style>
 </defs>
 <path style="fill:currentColor" class="ColorScheme-Text" d="M 4 1 L 1 4 L 3 4 L 3 15 L 5 15 L 5 4 L 7 4 L 4 1 z M 11 1 L 11 12 L 9 12 L 12 15 L 15 12 L 13 12 L 13 1 L 11 1 z" transform="translate(3 3)"/>
</svg>
